public/sample_cinematic_warmth.cube
# Sample Cinematic Warmth 3D LUT for Pocket Frames
TITLE "Cinematic Warmth Custom"
LUT_3D_SIZE 4
DOMAIN_MIN 0.0 0.0 0.0
DOMAIN_MAX 1.0 1.0 1.0
0.030000 0.015000 0.020000
0.340000 0.020000 0.025000
0.680000 0.030000 0.030000
1.000000 0.040000 0.040000
0.030000 0.350000 0.025000
0.350000 0.360000 0.030000
0.690000 0.380000 0.040000
1.000000 0.400000 0.050000
0.035000 0.690000 0.030000
0.360000 0.700000 0.040000
0.700000 0.720000 0.050000
1.000000 0.750000 0.070000
0.040000 1.000000 0.040000
0.380000 1.000000 0.050000
0.720000 1.000000 0.070000
1.000000 1.000000 0.090000
0.025000 0.015000 0.330000
0.340000 0.020000 0.340000
0.680000 0.030000 0.350000
1.000000 0.040000 0.360000
0.028000 0.350000 0.340000
0.350000 0.360000 0.350000
0.690000 0.380000 0.360000
1.000000 0.400000 0.380000
0.030000 0.690000 0.350000
0.360000 0.700000 0.360000
0.700000 0.720000 0.380000
1.000000 0.750000 0.400000
0.035000 1.000000 0.360000
0.380000 1.000000 0.380000
0.720000 1.000000 0.400000
1.000000 1.000000 0.420000
0.020000 0.015000 0.660000
0.330000 0.020000 0.670000
0.670000 0.030000 0.680000
1.000000 0.040000 0.700000
0.025000 0.340000 0.670000
0.340000 0.350000 0.680000
0.680000 0.370000 0.700000
1.000000 0.390000 0.720000
0.028000 0.680000 0.680000
0.350000 0.690000 0.700000
0.690000 0.710000 0.720000
1.000000 0.740000 0.750000
0.032000 0.980000 0.700000
0.370000 0.990000 0.720000
0.710000 1.000000 0.750000
1.000000 1.000000 0.780000
0.015000 0.015000 0.980000
0.320000 0.020000 0.980000
0.660000 0.030000 0.990000
1.000000 0.040000 1.000000
0.020000 0.330000 0.980000
0.330000 0.340000 0.990000
0.670000 0.360000 1.000000
1.000000 0.380000 1.000000
0.025000 0.670000 0.990000
0.340000 0.680000 1.000000
0.680000 0.700000 1.000000
1.000000 0.730000 1.000000
0.030000 0.970000 1.000000
0.360000 0.980000 1.000000
0.700000 0.990000 1.000000
1.000000 1.000000 1.000000
